automancy/models/items/elements/files/fire.svg

<?xml version="1.0" encoding="UTF-8" standalone="no"?>
<svg
   width="160cm"
   height="160cm"
   viewBox="0 0 160 160"
   version="1.1"
   id="svg2"
   sodipodi:docname="fire.svg"
   inkscape:version="1.3.2 (091e20ef0f, 2023-11-25, custom)"
   inkscape:export-filename="fire.png"
   inkscape:export-xdpi="4.0640001"
   inkscape:export-ydpi="4.0640001"
   xmlns:inkscape="http://www.inkscape.org/namespaces/inkscape"
   xmlns:sodipodi="http://sodipodi.sourceforge.net/DTD/sodipodi-0.dtd"
   xmlns="http://www.w3.org/2000/svg"
   xmlns:svg="http://www.w3.org/2000/svg">
  <defs
     id="defs2" />
  <sodipodi:namedview
     id="namedview2"
     pagecolor="#505050"
     bordercolor="#eeeeee"
     borderopacity="1"
     inkscape:showpageshadow="0"
     inkscape:pageopacity="0"
     inkscape:pagecheckerboard="0"
     inkscape:deskcolor="#d1d1d1"
     inkscape:document-units="cm"
     inkscape:zoom="0.11313708"
     inkscape:cx="2925.6544"
     inkscape:cy="3478.0816"
     inkscape:window-width="1872"
     inkscape:window-height="1052"
     inkscape:window-x="1920"
     inkscape:window-y="0"
     inkscape:window-maximized="1"
     inkscape:current-layer="svg2" />
  <path
     id="path3"
     style="fill:#df6b6b;stroke-width:2;stroke-linecap:round;stroke-linejoin:round;fill-opacity:1;stroke:none"
     d="M 159.99998,79.999992 A 79.999992,79.999992 0 0 1 79.999992,159.99998 79.999992,79.999992 0 0 1 0,79.999992 79.999992,79.999992 0 0 1 79.999992,0 79.999992,79.999992 0 0 1 159.99998,79.999992 Z" />
  <path
     id="path3-5"
     style="fill:#b77070;fill-opacity:1;stroke:none;stroke-width:1.75046;stroke-linecap:round;stroke-linejoin:round;stroke-dasharray:none"
     d="M 149.99999,79.999995 A 70.000001,70.000002 0 0 1 79.999993,149.99999 70.000001,70.000002 0 0 1 9.9999915,79.999995 70.000001,70.000002 0 0 1 79.999993,9.999991 70.000001,70.000002 0 0 1 149.99999,79.999995 Z" />
  <path
     id="path3-6-7"
     style="fill:#ffa397;fill-opacity:1;stroke:none;stroke-width:15.3809;stroke-linecap:butt;stroke-linejoin:round;stroke-miterlimit:4;stroke-dasharray:none;stroke-opacity:1;paint-order:stroke fill markers"
     inkscape:label="path3-6-7"
     d="M 72.839808,24.999987 C 95.316693,48.621261 83.886097,81.35275 61.333908,87.471522 89.855585,20.763691 51.972032,52.853821 42.659056,73.748071 33.237213,96.598249 49.190567,128.0927 85.164903,134.99999 80.231294,123.3441 70.762986,100.01117 90.782552,96.929446 153.12199,91.635289 100.49566,30.825259 72.839808,24.999987 Z" />
</svg>

<svg xmlns="http://www.w3.org/2000/svg" width="160cm" height="160cm" viewBox="0 0 160 160"><path d="M160 80a80 80 0 0 1-80 80A80 80 0 0 1 0 80 80 80 0 0 1 80 0a80 80 0 0 1 80 80" style="fill:#df6b6b;stroke-width:2;stroke-linecap:round;stroke-linejoin:round;fill-opacity:1;stroke:none"/><path d="M150 80a70 70 0 0 1-70 70 70 70 0 0 1-70-70 70 70 0 0 1 70-70 70 70 0 0 1 70 70" style="fill:#b77070;fill-opacity:1;stroke:none;stroke-width:1.75046;stroke-linecap:round;stroke-linejoin:round;stroke-dasharray:none"/><path d="M72.84 25c22.477 23.621 11.046 56.353-11.506 62.472 28.522-66.708-9.362-34.618-18.675-13.724-9.422 22.85 6.532 54.345 42.506 61.252-4.934-11.656-14.402-34.989 5.618-38.07 62.339-5.295 9.713-66.105-17.943-71.93" style="fill:#ffa397;fill-opacity:1;stroke:none;stroke-width:15.3809;stroke-linecap:butt;stroke-linejoin:round;stroke-miterlimit:4;stroke-dasharray:none;stroke-opacity:1;paint-order:stroke fill markers"/></svg>
